Papirus/16x16/apps/com.leinardi.gst.svg

<svg width="16" height="16" version="1.1" xmlns="http://www.w3.org/2000/svg">
 <rect y="1" width="16" height="14" rx="1.455" ry="1.474" style="fill:#d63f36"/>
 <rect x="5" y="5" width="6" height="6" rx=".667" ry=".667" style="fill:#7ea193"/>
 <path d="m6 2v4h-2v-1.5c-2.76e-5 -0.2761309-0.2238691-0.4999724-0.5-0.5h-1c-0.6761613-0.00956-0.6761613 1.0095626 0 1h0.5v1.5c2.76e-5 0.2761309 0.2238691 0.4999724 0.5 0.5h3.5v-5zm3 0v5l4.507812 0.00781c0.276131-2.76e-5 0.499972-0.2238691 0.5-0.5v-2c0.004417-0.2822637-0.225546-0.5122266-0.507812-0.50781-0.276145 0.00431-0.496509 0.2316675-0.492188 0.5078125v1.5h-3.007812v-4.0078125zm-6.5 7c-0.2761309 2.76e-5 -0.4999724 0.2238691-0.5 0.5v2c-0.00956 0.676161 1.0095626 0.676161 1 0v-1.5h3v4h1v-5zm6.5 0v5h1v-3.992188h2.007812v1.5c2.8e-5 0.276131 0.223869 0.499972 0.5 0.5h1c0.676161 0.0096 0.676161-1.009563 0-1h-0.5v-1.4999995c-2.8e-5 -0.2761309-0.223869-0.4999724-0.5-0.5z" style="fill:#569c81"/>
 <path d="m6 5v1h-1v1h1v2h-1v1h1v1h1v-1h2v1h1v-1h1v-1h-1v-2h1v-1h-1v-1h-1v1h-2v-1z" style="fill:#fbd14e"/>
 <rect x="6" y="6" width="4" height="4" style="fill:#414141"/>
</svg>

<svg xmlns="http://www.w3.org/2000/svg" width="16" height="16" version="1.1">
 <rect style="fill:#d63f36" width="16" height="14" x="0" y="1" rx="1.455" ry="1.474"/>
 <rect style="fill:#7ea193" width="6" height="6" x="5" y="5" rx=".667" ry=".667"/>
 <path style="fill:#569c81" d="M 6 2 L 6 6 L 4 6 L 4 4.5 A 0.50005 0.50005 0 0 0 3.5 4 L 2.5 4 A 0.50005 0.50005 0 1 0 2.5 5 L 3 5 L 3 6.5 A 0.50005 0.50005 0 0 0 3.5 7 L 6 7 L 6.5 7 L 7 7 L 7 6.5800781 A 0.50005 0.50005 0 0 0 7 6.4179688 L 7 2 L 6 2 z M 9 2 L 9 6.515625 L 9 7 L 9.4140625 7 A 0.50005 0.50005 0 0 0 9.5078125 7.0078125 L 13.507812 7.0078125 A 0.50005 0.50005 0 0 0 14.007812 6.5078125 L 14.007812 4.5078125 A 0.50005 0.50005 0 0 0 13.5 4 A 0.50005 0.50005 0 0 0 13.007812 4.5078125 L 13.007812 6.0078125 L 10 6.0078125 L 10 2 L 9 2 z M 2.5 9 A 0.50005 0.50005 0 0 0 2 9.5 L 2 11.5 A 0.50005 0.50005 0 1 0 3 11.5 L 3 10 L 6 10 L 6 14 L 7 14 L 7 9.5800781 A 0.50005 0.50005 0 0 0 7 9.4179688 L 7 9 L 6.5351562 9 L 6.5 9 L 6 9 L 2.5 9 z M 9 9 L 9 9.515625 L 9 14 L 10 14 L 10 10.007812 L 12.007812 10.007812 L 12.007812 11.507812 A 0.50005 0.50005 0 0 0 12.507812 12.007812 L 13.507812 12.007812 A 0.50005 0.50005 0 1 0 13.507812 11.007812 L 13.007812 11.007812 L 13.007812 9.5078125 A 0.50005 0.50005 0 0 0 12.507812 9.0078125 L 10 9.0078125 L 10 9 L 9 9 z"/>
 <path style="fill:#fbd14e" d="M 6 5 L 6 6 L 5 6 L 5 7 L 6 7 L 6 9 L 5 9 L 5 10 L 6 10 L 6 11 L 7 11 L 7 10 L 9 10 L 9 11 L 10 11 L 10 10 L 11 10 L 11 9 L 10 9 L 10 7 L 11 7 L 11 6 L 10 6 L 10 5 L 9 5 L 9 6 L 7 6 L 7 5 L 6 5 z M 7 7 L 9 7 L 9 9 L 7 9 L 7 7 z"/>
 <rect style="fill:#414141" width="4" height="4" x="6" y="6"/>
</svg>
